X:145
U: ~ = !turn!
%%topmargin 3cm
T:O'Brien's Hornpipe
B:Traditional Irish Fiddle Tunes. Randy Miller and Jack Perron.
S:Sean Ryan
Z:Transcribed by Ralph Palmer
R:Hornpipe
M:C|
L:1/8
K:G
((3DEF) | {GA}G2 DG {Bc}B2 GB | dg (3{/a}(gfg) bgdB | (3{/d}(cBc) ec Bdgf | edcB ADEF |
{GA}G2 CG {Bc}B2 GB | dg (3{/a}(gfg) bgdB | (3{/d}(cBc) ec Bdgf | ed ((3cBA) G2 ::
Bd | (3{/a}(gfg) bg dgbg | (3.d.d.d bg dBGB | (3{/d}(cBc) ec Bdgf | edcB ADFA |
((3Bcd) BG {/d}cBcA | dg (3{/a}(gfg) bgdB | (3{/d}(cBc) ec Bdgf | ed ((3cBA) G2 :|]
